svg/u1f1ea.svg

<svg viewBox="0 0 128 128" xmlns="http://www.w3.org/2000/svg">
  <path d="m98.89 36.51c1.23 0 2.24-1 2.24-2.24v-16.72c0-1.24-1.01-2.24-2.24-2.24h-69.79c-1.24 0-2.24 1-2.24 2.24v100.97c0 1.24 1 2.24 2.24 2.24h69.8c1.23 0 2.24-1 2.24-2.24v-16.72c0-1.24-1.01-2.24-2.24-2.24h-45.66v-22.05h35.12c1.23 0 2.24-1 2.24-2.24v-16.72c0-1.24-1.01-2.24-2.24-2.24h-35.12v-19.8h45.65z" fill="#40C0E7"/>
</svg>

<svg viewBox="0 0 128 128" xmlns="http://www.w3.org/2000/svg">
  <defs/>
  <path d="M98.89,36.51 C100.12,36.51 101.13,35.51 101.13,34.27 L101.13,17.55 C101.13,16.31 100.12,15.31 98.89,15.31 L29.1,15.31 C27.86,15.31 26.86,16.31 26.86,17.55 L26.86,118.52 C26.86,119.76 27.86,120.76 29.1,120.76 L98.9,120.76 C100.13,120.76 101.14,119.76 101.14,118.52 L101.14,101.8 C101.14,100.56 100.13,99.56 98.9,99.56 L53.24,99.56 L53.24,77.51 L88.36,77.51 C89.59,77.51 90.6,76.51 90.6,75.27 L90.6,58.55 C90.6,57.31 89.59,56.31 88.36,56.31 L53.24,56.31 L53.24,36.51 L98.89,36.51 Z" fill="#40C0E7"/>
</svg>
